packages/react-app/public/img/upload.svg

<svg width="48" height="48" viewBox="0 0 48 48" fill="none" xmlns="http://www.w3.org/2000/svg">
	<path d="M38 44H10C6.68778 43.9964 4.00362 41.3122 4 38V30C4 28.8954 4.89544 28 6 28C7.10456 28 8 28.8954 8 30V38C8.00074 39.1043 8.89574 39.9993 10 40H38C39.1043 39.9993 39.9993 39.1043 40 38V30C40 28.8954 40.8954 28 42 28C43.1046 28 44 28.8954 44 30V38C43.9964 41.3122 41.3122 43.9964 38 44Z" fill="#8247E5" />
	<path d="M33.414 12.586L25.414 4.586C24.6335 3.80504 23.3676 3.8047 22.5867 4.58524C22.5864 4.58548 22.5862 4.58574 22.5859 4.586L14.5859 12.586C13.81 13.372 13.8181 14.6381 14.604 15.4141C15.3829 16.183 16.6352 16.183 17.414 15.414L22 10.8281V30C22 31.1046 22.8954 32 24 32C25.1046 32 26 31.1046 26 30V10.8281L30.586 15.4141C31.3719 16.1901 32.6381 16.1822 33.4141 15.3963C34.1832 14.6174 34.1832 13.3649 33.414 12.586Z" fill="#BC98FA" />
</svg>

<?xml version="1.0" encoding="utf-8"?>
<svg version="1.1" id="Layer_1"  width="48" height="48" xmlns="http://www.w3.org/2000/svg" xmlns:xlink="http://www.w3.org/1999/xlink" x="0px" y="0px" viewBox="0 0 48 48" style="enable-background:new 0 0 48 48;" xml:space="preserve">
<path style="fill:#018837;" d="M38,44H10c-3.3,0-6-2.7-6-6v-8c0-1.1,0.9-2,2-2s2,0.9,2,2v8c0,1.1,0.9,2,2,2h28c1.1,0,2-0.9,2-2v-8
	c0-1.1,0.9-2,2-2s2,0.9,2,2v8C44,41.3,41.3,44,38,44z"/>
<path style="fill:#70C290;" d="M33.4,12.6l-8-8c-0.8-0.8-2-0.8-2.8,0c0,0,0,0,0,0l-8,8c-0.8,0.8-0.8,2.1,0,2.8c0.8,0.8,2,0.8,2.8,0
	l4.6-4.6V30c0,1.1,0.9,2,2,2s2-0.9,2-2V10.8l4.6,4.6c0.8,0.8,2.1,0.8,2.8,0C34.2,14.6,34.2,13.4,33.4,12.6z"/>
</svg>
